svgs/sharp-light/triangle-exclamation.svg

<svg xmlns="http://www.w3.org/2000/svg" viewBox="0 0 512 512"><!--! Font Awesome Pro 6.6.0 by @fontawesome - https://fontawesome.com License - https://fontawesome.com/license (Commercial License) Copyright 2024 Fonticons, Inc. --><path d="M18.3 448L0 480l36.9 0 438.3 0 36.9 0-18.3-32L274.4 64.2 256 32 237.6 64.2 18.3 448zm438.6 0L55.1 448 256 96.5 456.9 448zM240 320l0 16 32 0 0-16 0-128-32 0 0 128zm40 96l0-48-48 0 0 48 48 0z"/></svg>

<svg xmlns="http://www.w3.org/2000/svg" viewBox="0 0 512 512"><!--! Font Awesome Pro 6.4.2 by @fontawesome - https://fontawesome.com License - https://fontawesome.com/license (Commercial License) Copyright 2023 Fonticons, Inc. --><path d="M18.3 448L0 480H36.9 475.1 512l-18.3-32L274.4 64.2 256 32 237.6 64.2 18.3 448zm438.6 0H55.1L256 96.5 456.9 448zM240 320v16h32V320 192H240V320zm40 96V368H232v48h48z"/></svg>
